X:1
T:Queensland, 87.87 D
T:Queensland, 87.87 D
T:Robert Lowry, 1884
T:Public Domain Courtesy of the Cyber Hymnal™
C:Robert Lowry, 1884
Z:Public Domain
Z:Courtesy of the Cyber Hymnal™
%%score ( 1 2 ) ( 3 4 )
L:1/8
Q:1/4=109
M:4/4
K:G
V:1 treble 
V:2 treble 
V:3 bass 
V:4 bass 
V:1
 [Gd]2 [Ge]2 [Gd]2 [GB]2 | [DG]2 [DB]2 [DA]2 [DG]2 | [CE]2 [CG]2 [B,D]2 [DG]2 | [GB]2 [Gd]2 [Fd]4 | %4
 [Gd]2 [Ge]2 [Gd]2 [GB]2 | [DG]2 [DB]2 [CA]2 [B,G]2 | [CE]2 [CG]2 [B,D]2 [DG]2 | %7
 [GB]2 [DA]2 [DG]4 | [^DB]2 [DF]2 [EG]2 E2 | [^DF]2 [DB]2 [EG]2 E2 | [EB]2 [_EB]2 [DB]2 [Dd]2 | %11
 [DA]2 [Dc]2 [DB]4 | [Gd]2 [Ge]2 [Gd]2 [GB]2 | [DG]2 [DB]2 [CA]2 [B,G]2 | %14
 [CE]2 [CG]2 [B,D]2 [DG]2 | [GB]2 [DA]2 [DG]4 |] %16
V:2
 x8 | x8 | x8 | x8 | x8 | x8 | x8 | x8 | x6 E2 | x6 E2 | x8 | x8 | x8 | x8 | x8 | x8 |] %16
V:3
 [G,B,]2 [G,C]2 [G,B,]2 [G,D]2 | [G,B,]2 G,2 [D,C]2 [G,,B,]2 | [C,G,]2 [E,G,]2 G,2 [G,,B,]2 | %3
 [G,D]2 [G,B,]2 [D,A,]4 | [G,B,]2 [G,C]2 [G,B,]2 [G,D]2 | [G,B,]2 G,2 [D,F,]2 [E,G,]2 | %6
 [C,G,]2 [E,G,]2 G,2 [G,,B,]2 | [D,D]2 [D,C]2 [G,B,]4 | [B,,B,]2 [B,,B,]2 [E,B,]2 [E,G,]2 | %9
 [B,,B,]2 [B,,B,]2 [E,B,]2 [E,G,]2 | [E,G,]2 [F,A,]2 G,2 [B,,G,]2 | [D,F,]2 [D,A,]2 G,4 | %12
 [G,B,]2 [G,C]2 [G,B,]2 [G,D]2 | [G,B,]2 G,2 [D,F,]2 [E,G,]2 | [C,G,]2 [E,G,]2 G,2 [G,,B,]2 | %15
 [D,D]2 [D,C]2 [G,,B,]4 |] %16
V:4
 x8 | x2 G,2 x4 | x4 G,2 x2 | x8 | x8 | x2 G,2 x4 | x4 G,2 x2 | x8 | x8 | x8 | x4 G,2 x2 | x4 G,4 | %12
 x8 | x2 G,2 x4 | x4 G,2 x2 | x8 |] %16

